X:233
T:
R:polska
N:I gammal folkviseton;
S:uppt. efter gumman Helena Mårtensson i Burs efter föresjungning.
O:Gotland, Burs
M:3/4
L:1/16
K:Dm
A4 Ld3^c d2e2|e3f d2d2 c4|e2ed c2c=B A2A=B|
c=BA^G ^G4 A4::f3e f2g2 a3a|g3e c2e2 g4|
f3e f2g2 a2a2|g3e c2e2 g4|Lf4 d2d2 c4|
e2ed c2c=B A2A=B|c=BA^G ^G4 A4:|

